src/xmb/monochrome/Non-Redump - Microsoft - Pocket PC.svg

<svg xmlns="http://www.w3.org/2000/svg" xml:space="preserve" viewBox="0 0 64 64"><style>.st0{fill:#fff}</style><g id="pda"><path d="M48.3 4V2.8c0-.3-.5-.6-1.2-.6s-1.2.2-1.2.6v.6c-.3-.1-.7-.2-1.1-.2l-.6 4.6c-.2.9-.9 1.7-1.8 1.8-1.6.2-5.9.6-10.4.6s-8.8-.4-10.4-.6c-.9-.1-1.7-.9-1.8-1.8l-.6-4.6c-2.8.6-4.3 1.2-4.3 1.2h-1.6c-.4 0-.8.4-.8.8v3.1s2 3.1 2.4 7.2v40.8s6 6.5 17.2 6.5 17.2-6.5 17.2-6.5v-52c-.1 0-.4-.1-1-.3M20.7 57.2c-.8 0-1.5-.7-1.5-1.5s.7-1.5 1.5-1.5 1.5.7 1.5 1.5-.7 1.5-1.5 1.5m1.7-5.2c0-.8.7-1.5 1.5-1.5s1.5.7 1.5 1.5-.7 1.5-1.5 1.5-1.5-.7-1.5-1.5m13.8 7c-.1.1-.1.3-.2.4-.5.8-1.3 1.1-4 1.1s-3.5-.3-4-1.1c-.1-.1-.1-.3-.2-.4-2.2-.6-3.6-1.7-3.6-3s1.4-2.4 3.6-3c.1-.1.1-.3.2-.4.5-.8 1.3-1.1 4-1.1s3.5.3 4 1.1c.1.1.2.3.2.4 2.2.6 3.6 1.7 3.6 3s-1.4 2.4-3.6 3m3.9-5.5c-.8 0-1.5-.7-1.5-1.5s.7-1.5 1.5-1.5 1.5.7 1.5 1.5-.6 1.5-1.5 1.5m3.2 3.7c-.8 0-1.5-.7-1.5-1.5s.7-1.5 1.5-1.5 1.5.7 1.5 1.5-.6 1.5-1.5 1.5m2.7-9.3H18v-36h28z" class="st0"/><path d="M32 1.1c-6 0-10.9 1.5-12.1 1.8l.6 4.7c.1.6.6 1.1 1.2 1.2 1.6.2 5.8.6 10.3.6s8.7-.4 10.3-.6c.6-.1 1.1-.6 1.2-1.2l.6-4.7C42.9 2.5 38 1.1 32 1.1m2.2 7.2h-4.4s-1.5 0-2.2-.4c.7-.3 2.2-.4 2.2-.4h4.4s1.4 0 2.2.4c-.8.4-2.2.4-2.2.4m0-1.6h-4.4s-1.5 0-2.2-.4c.7-.3 2.2-.4 2.2-.4h4.4s1.4 0 2.2.4c-.8.3-2.2.4-2.2.4m0-1.6h-4.4s-1.5 0-2.2-.4c.7-.3 2.2-.4 2.2-.4h4.4s1.4 0 2.2.4c-.8.4-2.2.4-2.2.4m5.1 1.8c-.7 0-1.3-.6-1.3-1.3s.6-1.3 1.3-1.3 1.3.6 1.3 1.3c.1.7-.5 1.3-1.3 1.3M32 53.2c-4.2 0-7.1 1.5-7.1 2.8s2.8 2.8 7.1 2.8 7.1-1.5 7.1-2.8-2.9-2.8-7.1-2.8M27.2 56c1.3-.7 2.7-.7 4 0-1.3.7-2.7.7-4 0m4.8 2.6q-1.05-1.05 0-2.1c.7.6.7 1.4 0 2.1m0-3q-1.05-1.05 0-2.1 1.05 1.05 0 2.1m.8.4c1.3-.7 2.7-.7 4 0-1.3.7-2.6.7-4 0" class="st0"/></g></svg>

<?xml version="1.0" encoding="utf-8"?>
<svg version="1.1" xmlns="http://www.w3.org/2000/svg" xmlns:xlink="http://www.w3.org/1999/xlink" x="0px" y="0px" viewBox="0 0 64 64" style="enable-background:new 0 0 64 64;" xml:space="preserve">
<style type="text/css">
	.st0{fill:#FFFFFF;}
</style>
<g id="pda">
	<path class="st0" d="M48.3,4c0-0.5,0-1.1,0-1.2c0-0.3-0.5-0.6-1.2-0.6s-1.2,0.2-1.2,0.6c0,0.1,0,0.3,0,0.6
		c-0.3-0.1-0.7-0.2-1.1-0.2l-0.6,4.6c-0.2,0.9-0.9,1.7-1.8,1.8c-1.6,0.2-5.9,0.6-10.4,0.6s-8.8-0.4-10.4-0.6
		c-0.9-0.1-1.7-0.9-1.8-1.8l-0.6-4.6c-2.8,0.6-4.3,1.2-4.3,1.2h-1.6c-0.4,0-0.8,0.4-0.8,0.8v3.1c0,0,2,3.1,2.4,7.2v40.8
		c0,0,6,6.5,17.2,6.5s17.2-6.5,17.2-6.5V4.3C49.2,4.3,48.9,4.2,48.3,4z M20.7,57.2c-0.8,0-1.5-0.7-1.5-1.5s0.7-1.5,1.5-1.5
		s1.5,0.7,1.5,1.5S21.5,57.2,20.7,57.2z M22.4,52c0-0.8,0.7-1.5,1.5-1.5s1.5,0.7,1.5,1.5s-0.7,1.5-1.5,1.5S22.4,52.8,22.4,52z
		 M36.2,59c-0.1,0.1-0.1,0.3-0.2,0.4c-0.5,0.8-1.3,1.1-4,1.1s-3.5-0.3-4-1.1c-0.1-0.1-0.1-0.3-0.2-0.4c-2.2-0.6-3.6-1.7-3.6-3
		c0-1.3,1.4-2.4,3.6-3c0.1-0.1,0.1-0.3,0.2-0.4c0.5-0.8,1.3-1.1,4-1.1s3.5,0.3,4,1.1c0.1,0.1,0.2,0.3,0.2,0.4c2.2,0.6,3.6,1.7,3.6,3
		C39.8,57.3,38.4,58.4,36.2,59z M40.1,53.5c-0.8,0-1.5-0.7-1.5-1.5s0.7-1.5,1.5-1.5s1.5,0.7,1.5,1.5S41,53.5,40.1,53.5z M43.3,57.2
		c-0.8,0-1.5-0.7-1.5-1.5s0.7-1.5,1.5-1.5s1.5,0.7,1.5,1.5S44.2,57.2,43.3,57.2z M46,47.9H18v-36h28V47.9z"/>
	<path class="st0" d="M32,1.1c-6,0-10.9,1.5-12.1,1.8l0.6,4.7c0.1,0.6,0.6,1.1,1.2,1.2c1.6,0.2,5.8,0.6,10.3,0.6s8.7-0.4,10.3-0.6
		c0.6-0.1,1.1-0.6,1.2-1.2l0.6-4.7C42.9,2.5,38,1.1,32,1.1z M34.2,8.3h-4.4c0,0-1.5,0-2.2-0.4c0.7-0.3,2.2-0.4,2.2-0.4h4.4
		c0,0,1.4,0,2.2,0.4C35.6,8.3,34.2,8.3,34.2,8.3z M34.2,6.7h-4.4c0,0-1.5,0-2.2-0.4c0.7-0.3,2.2-0.4,2.2-0.4h4.4c0,0,1.4,0,2.2,0.4
		C35.6,6.6,34.2,6.7,34.2,6.7z M34.2,5.1h-4.4c0,0-1.5,0-2.2-0.4c0.7-0.3,2.2-0.4,2.2-0.4h4.4c0,0,1.4,0,2.2,0.4
		C35.6,5.1,34.2,5.1,34.2,5.1z M39.3,6.9c-0.7,0-1.3-0.6-1.3-1.3c0-0.7,0.6-1.3,1.3-1.3c0.7,0,1.3,0.6,1.3,1.3
		C40.7,6.3,40.1,6.9,39.3,6.9z"/>
	<path class="st0" d="M32,53.2c-4.2,0-7.1,1.5-7.1,2.8s2.8,2.8,7.1,2.8s7.1-1.5,7.1-2.8S36.2,53.2,32,53.2z M27.2,56
		c1.3-0.7,2.7-0.7,4,0C29.9,56.7,28.5,56.7,27.2,56z M32,58.6c-0.7-0.7-0.7-1.4,0-2.1C32.7,57.1,32.7,57.9,32,58.6z M32,55.6
		c-0.7-0.7-0.7-1.4,0-2.1C32.7,54.2,32.7,54.9,32,55.6z M32.8,56c1.3-0.7,2.7-0.7,4,0C35.5,56.7,34.2,56.7,32.8,56z"/>
</g>
</svg>
